frontend/public/icons/mail-out.svg

<svg width="24" height="24" viewBox="0 0 24 24" fill="none" xmlns="http://www.w3.org/2000/svg">
<path d="M5 9L9.5 12L14 9" stroke="black" stroke-width="1.5" stroke-linecap="round" stroke-linejoin="round"/>
<path d="M17 19H3C1.89543 19 1 18.1046 1 17V7C1 5.89543 1.89543 5 3 5H16C17.1046 5 18 5.89543 18 7V9" stroke="black" stroke-width="1.5" stroke-linecap="round"/>
<path d="M17 14H23M23 14L20 11M23 14L20 17" stroke="black" stroke-width="1.5" stroke-linecap="round" stroke-linejoin="round"/>
</svg>

<svg xmlns="http://www.w3.org/2000/svg" width="24" height="24" fill="none" viewBox="0 0 24 24">
  <path stroke="#131927" stroke-linecap="round" stroke-linejoin="round" stroke-width="1.5" d="m5 9 4.5 3L14 9"/>
  <path stroke="#131927" stroke-linecap="round" stroke-width="1.5" d="M17 19H3a2 2 0 0 1-2-2V7a2 2 0 0 1 2-2h13a2 2 0 0 1 2 2v2"/>
  <path stroke="#131927" stroke-linecap="round" stroke-linejoin="round" stroke-width="1.5" d="M17 14h6m0 0-3-3m3 3-3 3"/>
</svg>
